src/icons/k8s-statefulset.svg

<?xml version="1.0" encoding="UTF-8"?>
<svg xmlns="http://www.w3.org/2000/svg" xmlns:xlink="http://www.w3.org/1999/xlink" width="32.978001" height="32" viewBox="0 0 32.978001 32" version="1.1">
<g id="surface1">
<path style=" stroke:none;fill-rule:nonzero;fill:rgb(19.607843%,42.352942%,89.803922%);fill-opacity:1;" d="M 16.445312 0.847656 C 16.167969 0.859375 15.898438 0.929688 15.648438 1.046875 L 4.789062 6.238281 C 4.21875 6.507812 3.804688 7.023438 3.664062 7.636719 L 0.984375 19.292969 C 0.859375 19.835938 0.960938 20.40625 1.265625 20.871094 C 1.304688 20.925781 1.34375 20.980469 1.386719 21.035156 L 8.902344 30.382812 C 9.296875 30.871094 9.894531 31.15625 10.527344 31.15625 L 22.582031 31.152344 C 23.214844 31.152344 23.8125 30.871094 24.207031 30.378906 L 31.71875 21.03125 C 32.113281 20.542969 32.261719 19.902344 32.121094 19.289062 L 29.4375 7.632812 C 29.296875 7.019531 28.882812 6.503906 28.3125 6.234375 L 17.453125 1.046875 C 17.140625 0.898438 16.792969 0.828125 16.445312 0.847656 M 16.445312 0.847656 "/>
<path style=" stroke:none;fill-rule:nonzero;fill:rgb(100%,100%,100%);fill-opacity:1;" d="M 16.4375 0.00390625 C 16.148438 0.0195312 15.863281 0.0898438 15.601562 0.214844 L 4.132812 5.695312 C 3.535156 5.980469 3.097656 6.523438 2.949219 7.167969 L 0.121094 19.472656 C -0.03125 20.117188 0.125 20.796875 0.542969 21.3125 L 8.476562 31.183594 C 8.894531 31.699219 9.523438 32 10.191406 32 L 22.917969 31.996094 C 23.585938 31.996094 24.214844 31.695312 24.632812 31.179688 L 32.5625 21.3125 C 32.976562 20.796875 33.136719 20.117188 32.988281 19.472656 L 30.15625 7.164062 C 30.003906 6.519531 29.566406 5.976562 28.96875 5.691406 L 17.503906 0.214844 C 17.171875 0.0585938 16.804688 -0.015625 16.4375 0.00390625 M 16.445312 0.847656 C 16.792969 0.828125 17.136719 0.898438 17.453125 1.046875 L 28.3125 6.234375 C 28.882812 6.507812 29.296875 7.023438 29.4375 7.632812 L 32.121094 19.289062 C 32.261719 19.902344 32.113281 20.542969 31.71875 21.03125 L 24.207031 30.378906 C 23.8125 30.871094 23.210938 31.15625 22.582031 31.152344 L 10.527344 31.15625 C 9.894531 31.15625 9.296875 30.871094 8.902344 30.382812 L 1.386719 21.035156 C 0.992188 20.546875 0.84375 19.90625 0.984375 19.292969 L 3.664062 7.636719 C 3.804688 7.023438 4.21875 6.507812 4.789062 6.238281 L 15.648438 1.046875 C 15.898438 0.929688 16.167969 0.859375 16.445312 0.847656 M 16.445312 0.847656 "/>
<path style="fill:none;stroke-width:0.529146;stroke-linecap:square;stroke-linejoin:round;stroke:rgb(100%,100%,100%);stroke-opacity:1;stroke-dasharray:1.587438,1.587438;stroke-dashoffset:0.492105;stroke-miterlimit:10;" d="M 8.053652 5.13006 L 14.577848 5.13006 L 14.577848 9.712378 L 8.053652 9.712378 Z M 8.051516 5.13006 L 8.053652 5.13006 M 8.053652 5.13006 " transform="matrix(1.82853,0,0,1.82853,-1.324,-0.15)"/>
<path style="fill-rule:evenodd;fill:rgb(19.607843%,42.352942%,89.803922%);fill-opacity:1;stroke-width:0.529146;stroke-linecap:square;stroke-linejoin:round;stroke:rgb(100%,100%,100%);stroke-opacity:1;stroke-dasharray:1.587438,1.587438;stroke-dashoffset:0.703764;stroke-miterlimit:10;" d="M 6.515531 6.540004 L 13.039727 6.540004 L 13.039727 11.124459 L 6.515531 11.124459 Z M 6.513395 6.540004 L 6.515531 6.540004 M 6.515531 6.540004 " transform="matrix(1.82853,0,0,1.82853,-1.324,-0.15)"/>
<path style="fill-rule:evenodd;fill:rgb(100%,100%,100%);fill-opacity:1;stroke-width:0.529167;stroke-linecap:butt;stroke-linejoin:round;stroke:rgb(100%,100%,100%);stroke-opacity:1;stroke-miterlimit:10;" d="M 4.975274 7.952085 L 11.501606 7.952085 L 11.501606 12.534403 L 4.975274 12.534403 Z M 4.975274 7.952085 " transform="matrix(1.82853,0,0,1.82853,-1.324,-0.15)"/>
<path style=" stroke:none;fill-rule:evenodd;fill:rgb(100%,100%,100%);fill-opacity:1;" d="M 8.75 16.71875 C 8.75 15.933594 10.984375 15.296875 13.738281 15.296875 C 16.496094 15.296875 18.730469 15.933594 18.730469 16.71875 C 18.730469 17.503906 16.496094 18.140625 13.738281 18.140625 C 10.984375 18.140625 8.75 17.503906 8.75 16.71875 M 8.75 16.71875 "/>
<path style="fill:none;stroke-width:0.529167;stroke-linecap:butt;stroke-linejoin:round;stroke:rgb(19.607843%,42.352942%,89.803922%);stroke-opacity:1;stroke-miterlimit:10;" d="M 10.967536 9.225307 C 10.967536 9.654699 9.745585 10.002912 8.237372 10.002912 C 6.731295 10.002912 5.509344 9.654699 5.509344 9.225307 C 5.509344 8.795915 6.731295 8.447701 8.237372 8.447701 C 9.745585 8.447701 10.967536 8.795915 10.967536 9.225307 L 10.967536 11.329542 C 10.967536 11.758934 9.745585 12.107147 8.237372 12.107147 C 6.731295 12.107147 5.509344 11.758934 5.509344 11.329542 L 5.509344 9.225307 " transform="matrix(1.82853,0,0,1.82853,-1.324,-0.15)"/>
</g>
</svg>

<svg role="img" viewBox="0 0 32.978 32" xmlns="http://www.w3.org/2000/svg"><path d="M16.445.848a2.085 2.085 0 0 0-.797.199L4.79 6.238c-.57.27-.984.785-1.125 1.399L.984 19.293a2.046 2.046 0 0 0 .282 1.578c.039.055.078.11.12.164l7.516 9.348c.395.488.993.773 1.625.773l12.055-.004c.633 0 1.23-.28 1.625-.773l7.512-9.348a2.045 2.045 0 0 0 .402-1.742L29.437 7.633a2.063 2.063 0 0 0-1.125-1.399L17.454 1.047a2.082 2.082 0 0 0-1.008-.2m0 0" style="stroke:none;fill-rule:nonzero;fill:rgb(19.607843%,42.352942%,89.803922%);fill-opacity:1"/><path d="M16.438.004c-.29.016-.575.086-.836.21L4.132 5.696A2.166 2.166 0 0 0 2.95 7.168L.121 19.473a2.148 2.148 0 0 0 .422 1.84l7.934 9.87A2.206 2.206 0 0 0 10.19 32l12.727-.004c.668 0 1.297-.3 1.715-.816l7.93-9.867a2.16 2.16 0 0 0 .425-1.84L30.156 7.164a2.18 2.18 0 0 0-1.187-1.473L17.504.215c-.332-.156-.7-.23-1.067-.211m.007.844c.348-.02.692.05 1.008.199l10.86 5.187c.57.274.984.79 1.125 1.399l2.683 11.656a2.042 2.042 0 0 1-.402 1.742l-7.512 9.348a2.065 2.065 0 0 1-1.625.773l-12.055.004c-.632 0-1.23-.285-1.625-.773l-7.515-9.348a2.046 2.046 0 0 1-.402-1.742l2.68-11.656a2.063 2.063 0 0 1 1.124-1.399l10.86-5.191c.25-.117.519-.188.796-.2m0 0" style="stroke:none;fill-rule:nonzero;fill:rgb(100%,100%,100%);fill-opacity:1"/><path d="M8.053 5.13h6.525v4.582H8.053Zm0 0" style="fill:none;stroke-width:0.529146;stroke-linecap:square;stroke-linejoin:round;stroke:rgb(100%,100%,100%);stroke-opacity:1;stroke-dasharray:1.587438,1.587438;stroke-dashoffset:0.492105;stroke-miterlimit:10" transform="translate(-1.324 -.15)scale(1.82853)"/><path d="M6.515 6.54h6.524v4.584H6.515Zm0 0" style="fill-rule:evenodd;fill:rgb(19.607843%,42.352942%,89.803922%);fill-opacity:1;stroke-width:0.529146;stroke-linecap:square;stroke-linejoin:round;stroke:rgb(100%,100%,100%);stroke-opacity:1;stroke-dasharray:1.587438,1.587438;stroke-dashoffset:0.703764;stroke-miterlimit:10" transform="translate(-1.324 -.15)scale(1.82853)"/><path d="M4.975 7.952h6.526v4.582H4.975Zm0 0" style="fill-rule:evenodd;fill:rgb(100%,100%,100%);fill-opacity:1;stroke-width:0.529167;stroke-linecap:butt;stroke-linejoin:round;stroke:rgb(100%,100%,100%);stroke-opacity:1;stroke-miterlimit:10" transform="translate(-1.324 -.15)scale(1.82853)"/><path d="M8.75 16.719c0-.785 2.234-1.422 4.988-1.422 2.758 0 4.992.637 4.992 1.422 0 .785-2.234 1.422-4.992 1.422-2.754 0-4.988-.637-4.988-1.422m0 0" style="stroke:none;fill-rule:evenodd;fill:rgb(100%,100%,100%);fill-opacity:1"/><path d="M10.967 9.225c0 .43-1.222.778-2.73.778-1.506 0-2.728-.348-2.728-.778 0-.43 1.222-.777 2.728-.777 1.508 0 2.73.348 2.73.777v2.104c0 .43-1.222.778-2.73.778-1.506 0-2.728-.348-2.728-.778V9.225" style="fill:none;stroke-width:0.529167;stroke-linecap:butt;stroke-linejoin:round;stroke:rgb(19.607843%,42.352942%,89.803922%);stroke-opacity:1;stroke-miterlimit:10" transform="translate(-1.324 -.15)scale(1.82853)"/></svg>
